!!!!SEGMENT: pl-sa--l-1643--025_anonim--gaudeamus-omnes-in-domino.krn
!!!cenid: 16xx:1384
!!!COM: Anonim
!!!COM-rismID: pe30004985
!!!CDT:
!!!CNT:
!!!OTL: Gaudeamus omnes in Domino
!!!PDT:
!!!AGN: Sacred
!!!SMS-siglum: PL-SA
!!!SMS-shelfmark: L 1643
!!!SMS-shelfwork: 025 W
!!!SMS-variant: Bassus 2di Chori PL-SA L 1643 s: 66,67
!!!SMS-altvar: Bassus 2di Chori PL-SA L 1643 s: 13,14
!!!NIFC-rismSourceID: 1001064154
!!!NIFC-rismChildID: 1001064154
!!!NIFC-islandoraID:
!!!URL-pdf-islandora:
!!!URL-scan:
!!!ONB-nifc: UWAGA: 8 ksiąg. Primi chori: 1mus Cantus (s. 38), C 2dus (s. 146), C 3tius (brak), Bassus (s. 105-106); Secondi chori: Primus Cantus (brak), C 2dus (102-103), Altus (brak), Bassus (s. podwójnie 21-23 i 124-125). UWAGA: metrum 2/2 i 3/2. Nie dodawać pustych linii, chyba że w rękopisie pojawiają się dodatkowe oznaczenia dotyczące pełnej obsady (a 4, a 8 itp.)
!!!AIN: 5 empty
!!!key:
**kern	**text	**kern	**text	**kern	**text	**text	**kern	**text	**kern	**text
*part5	*part5	*part4	*part4	*part3	*part3	*part3	*part2	*part2	*part1	*part1
*staff5	*staff5	*staff4	*staff4	*staff3	*staff3	*staff3	*staff2	*staff2	*staff1	*staff1
*Iempty	*	*Iempty	*	*Iempty	*	*	*Iempty	*	*Iempty	*
*I"Bassus 2di Chori	*	*I"Cantus 2dus 2di Chori	*	*I"Bassus Primi Chori	*	*	*I"Cantus 2dus Primi Chori	*	*I"1mus Cantus Primi Chori	*
*I'B Coro 2	*	*I'S 2 Coro 2	*	*I'B Coro 1	*	*	*I'S 2 Coro 1	*	*I'S 1 Coro 1	*
*clefC3	*	*clefC1	*	*clefC3	*	*	*clefC1	*	*clefC1	*
*k[]	*	*k[]	*	*k[]	*	*	*k[]	*	*k[]	*
*G:	*	*G:	*	*G:	*	*	*G:	*	*G:	*
*M2/2	*	*M2/2	*	*M2/2	*	*	*M2/2	*	*M2/2	*
*met(C|)	*	*met(C|)	*	*met(C|)	*	*	*met(C|)	*	*met(C|)	*
=1-	=1-	=1-	=1-	=1-	=1-	=1-	=1-	=1-	=1-	=1-
0r	.	0r	.	1r	.	.	1r	.	4dd\	Gau-
.	.	.	.	.	.	.	.	.	4dd\	-de-
.	.	.	.	.	.	.	.	.	4dd\	-a-
.	.	.	.	.	.	.	.	.	4cc\	-mus
=2-	=2-	=2-	=2-	=2-	=2-	=2-	=2-	=2-	=2-	=2-
.	.	.	.	4g\	Gau-	.	4dd\	Gau-	2b\	om-
.	.	.	.	4g\	-de-	.	4dd\	-de-	.	.
.	.	.	.	4g\	-a-	.	4dd\	-a-	2g\	-nes
.	.	.	.	4g\	-mus	.	4cc\	-mus	.	.
=3-	=3-	=3-	=3-	=3-	=3-	=3-	=3-	=3-	=3-	=3-
4g\	Gau-	4b\	Gau-	2G/	om-	.	2b\	om-	1r	.
4g\	-de-	4b\	-de-	.	.	.	.	.	.	.
4g\	-a-	4b\	-a-	2G/	-nes	.	2g\	-nes	.	.
4g\	-mus	4cc\	-mus	.	.	.	.	.	.	.
=4-	=4-	=4-	=4-	=4-	=4-	=4-	=4-	=4-	=4-	=4-
*	*	*	*	*	*	*	*	*	*	*ij
2G/	om-	2dd\	om-	4g\	.	.	4b\	gau-	4dd\	gau-
.	.	.	.	4g\	.	.	4b\	-de-	4dd\	-de-
2G/	-nes	2dd\	-nes	4g\	.	.	4b\	-a-	4dd\	-a-
.	.	.	.	4g\	.	.	4cc\	-mus	4cc\	-mus
=5-	=5-	=5-	=5-	=5-	=5-	=5-	=5-	=5-	=5-	=5-
*	*ij	*	*ij	*	*	*	*	*	*	*
4g\	gau-	4b\	gau-	2G/	.	.	2dd\	om-	2b\	om-
4g\	-de-	4b\	-de-	.	.	.	.	.	.	.
4g\	-a-	4b\	-a-	2G/	.	.	2d/	-nes	2g\	-nes
*	*	*	*	*	*	*	*	*	*	*Xij
4g\	-mus	4cc\	-mus	.	.	.	.	.	.	.
=6-	=6-	=6-	=6-	=6-	=6-	=6-	=6-	=6-	=6-	=6-
2.d\	om-	2dd\	om-	4d\	gau-	.	4f#X/	gau-	4a\	Gau-
.	.	.	.	4d\	-de-	.	4f#/	-de-	4a\	-de-
.	.	2d/	-nes	4d\	-a-	.	4f#/	-a-	4a\	-a-
4G/	-nes	.	.	4g\	-mus	.	4g/	-mus	4b\	-mus
=7-	=7-	=7-	=7-	=7-	=7-	=7-	=7-	=7-	=7-	=7-
4d\	gau-	4f#X/	gau-	2.d\	o-	.	2a\	om-	2dd\	om-
4d\	-de-	4f#/	-de-	.	.	.	.	.	.	.
4d\	-a-	4f#/	-a-	.	.	.	2d/	-nes	2dd\	-nes
4g\	-mus	4g/	-mus	4G/	-mnes	.	.	.	.	.
=8-	=8-	=8-	=8-	=8-	=8-	=8-	=8-	=8-	=8-	=8-
2.d\	om-	2a\	om-	4d\	gau-	.	4f#X/	gau-	4a\	gau-
.	.	.	.	4d\	-de-	.	4f#/	-de-	4a\	-de-
.	.	2d/	-nes	4d\	-a-	.	4f#/	-a-	4a\	-a-
*	*	*	*Xij	*	*	*	*	*	*	*
*	*	*	*	*	*	*	*custos:a	*	*	*
4G/	-nes	.	.	4g,<\	-mus	.	4g/	-mus	4b\	-mus
=9-	=9-	=9-	=9-	=9-	=9-	=9-	=9-	=9-	=9-	=9-
*	*Xij	*	*	*	*	*	*	*	*	*
!	!	!	!	!	!	!	!LO:LB:g=original	!	!	!
1r	.	1r	.	4.d\	om-	.	2a\	om-	2dd\	om-
.	.	.	.	8e\	.	.	.	.	.	.
.	.	.	.	4f\	-nes	.	4a\	-nes	4cc\	-nes
*	*	*	*	*custos:d	*	*	*	*	*	*
.	.	.	.	4g\	in	.	4g\	in	4b\	in
=10-	=10-	=10-	=10-	=10-	=10-	=10-	=10-	=10-	=10-	=10-
!	!	!	!	!LO:LB:g=original	!	!	!	!	!	!
2r	.	2r	.	4.d\	Do-	.	4.f#X/	Do-	4.a\	Do-
*	*	*	*	*	*	*	*	*	*custos:a	*
.	.	.	.	8d\	-m(i)-	.	8f#/	-mi-	8a\	-mi-
!	!	!	!	!	!	!	!	!	!LO:LB:g=original	!
2d\	om-	2fny/	o-	2d\	-(n)o	.	2.f#/	-no	4a\	-no
.	.	.	.	.	.	.	.	.	4dd\	om-
=11-	=11-	=11-	=11-	=11-	=11-	=11-	=11-	=11-	=11-	=11-
4c#X/	-nes	4a\	-mnes	4r	.	.	.	.	4ee\	-nes
*custos:a	*	*	*	*	*	*	*	*	*	*
4d/	in	4a\	in	4d\	in	.	4f#/	in	4ff\	.
!LO:LB:g=original	!	!	!	!	!	!	!	!	!	!
4.A/	Do-	4.a\	Do-	4.a\	Do-	.	4.a\	Do-	4.ee\	Do-
*	*	*custos:f	*	*	*	*	*	*	*	*
8A/	-mi-	8e/	-mi-	8a\	-mi-	.	8a\	-mi-	8ee\	-mi-
=12-	=12-	=12-	=12-	=12-	=12-	=12-	=12-	=12-	=12-	=12-
!	!	!LO:LB:g=original	!	!	!	!	!	!	!	!
2d\	-no	2f#X/	-no	2d,<\	-no,	.	2a\	-no	2dd\	-no
2r	.	2r	.	4g\	di-	.	4b\	di-	4dd\	di-
.	.	.	.	4e\	-em	.	4cc\	-em	4ee\	-em
=13-	=13-	=13-	=13-	=13-	=13-	=13-	=13-	=13-	=13-	=13-
1r	.	0r	.	4f\	feſ-	.	4a\	feſ-	4cc\	feſ-
.	.	.	.	4d,<\	-tum,	.	4b\	-tum	4dd\	-tum
.	.	.	.	4e\	ce-	.	4g\	ce-	4b\	ce-
.	.	.	.	4c\	-le-	.	4a\	-le-	4cc\	-le-
=14-	=14-	=14-	=14-	=14-	=14-	=14-	=14-	=14-	=14-	=14-
2r	.	.	.	4d\	-bra(n)-	.	4f#X/	-bran-	4a\	-bran-
.	.	.	.	4d\	-tes,	.	4f#/	-tes	4a\	-tes
2d\	in	.	.	2r	.	.	2r	.	2r	.
=15-	=15-	=15-	=15-	=15-	=15-	=15-	=15-	=15-	=15-	=15-
2A/	ho-	2a\	in	0r	.	.	0r	.	0r	.
2cny/	-no-	2e/	ho-	.	.	.	.	.	.	.
=16-	=16-	=16-	=16-	=16-	=16-	=16-	=16-	=16-	=16-	=16-
2G/	-rem	2g/	-no-	.	.	.	.	.	.	.
2g\	be-	4g/	-rem	.	.	.	.	.	.	.
.	.	4g/	be-	.	.	.	.	.	.	.
=17-	=17-	=17-	=17-	=17-	=17-	=17-	=17-	=17-	=17-	=17-
2e\	-a-	2g/	-a-	4e\	Be-	.	4b\	be-	2g/	be-
.	.	.	.	4e\	-a-	.	2g/	-a-	.	.
!	!LO:MO:mod=-tae	!	!	!	!	!	!	!	!	!
4c/	-te	4e/	-tae	4g\	-ta(e)	.	.	.	2cc\	-a-
!	!LO:MO:mod=scho-	!	!	!	!	!	!	!	!	!
4c/	sho-	4e/	-ſcho-	4g\	scho-	.	4g/	-tae	.	.
=18-	=18-	=18-	=18-	=18-	=18-	=18-	=18-	=18-	=18-	=18-
2.d\	-la-	2.f#X/	-la-	2.d\	-la-	.	2dd\	scho-	4cc\	-tae
.	.	.	.	.	.	.	.	.	4b\	Scho-
.	.	.	.	.	.	.	4.a\	-la-	4.a\	-la-
4d\	-ſti-	4f#/	-ſti-	4d\	-ſti-	.	.	.	.	.
*	*	*	*	*	*	*	*custos:a	*	*	*
.	.	.	.	.	.	.	8a\	-sti-	8a\	-sti-
=19-	=19-	=19-	=19-	=19-	=19-	=19-	=19-	=19-	=19-	=19-
!	!	!	!	!	!LO:MO:mod=cae	!	!LO:LB:g=original	!	!	!
2d\	-cae	2g/,<	-cae	2d,<\	-ca,	.	2a\	-cae	2a\	-ce
*	*	*	*	*custos:d	*	*	*	*	*	*
!	!LO:MO:mod=Scho-	!	!	!	!	!	!	!	!	!
4B/	Sho-	4d/	scho-	2g\	Scho-	.	2g\	scho-	2dd\	Scho-
4c/	.	4e/	.	.	.	.	.	.	.	.
=20-	=20-	=20-	=20-	=20-	=20-	=20-	=20-	=20-	=20-	=20-
!	!	!	!	!LO:LB:g=original	!	!	!	!	!	!
2.d\	-la-	4f#X/	-la-	2.d\	-la-	.	2.dd\	-la-	2.dd\	-la-
.	.	2g/	-ſti-	.	.	.	.	.	.	.
4d\	-ſti-	4f#/	.	4d\	-ſti-	.	4dd\	-sti-	4dd\	-sti-
=21-	=21-	=21-	=21-	=21-	=21-	=21-	=21-	=21-	=21-	=21-
*	*	*	*	*	*	*	*	*	*custos:d	*
1G/	-cae	1g\	-cae	1g\;<	-ce.	.	1b\	-cae	1dd\	-ce
=22	=22	=22||	=22||	=22||	=22||	=22	=22	=22	=22	=22
*custos:d	*	*	*	*	*	*	*	*	*	*
!	!	!	!	!LO:TX:b:t=Haec eſt virgo	!	!	!LO:LB:g=original	!	!LO:TX:b:t=Haec est Virgo	!
1G/	Haec	2g/	Haec	00r	.	.	00r	.	00r	.
.	.	2.d/	-eſt-	.	.	.	.	.	.	.
=23-	=23-	=23-	=23-	=23-	=23-	=23-	=23-	=23-	=23-	=23-
!LO:LB:g=original	!	!	!	!	!	!	!	!	!	!
2d\	est	.	.	.	.	.	.	.	.	.
.	.	4e/	.	.	.	.	.	.	.	.
!	!	!LO:TX:t=P:problem=♯above	!	!	!	!	!	!	!	!
2.d\	Vir-	1f#X/	Vir-	.	.	.	.	.	.	.
=24-	=24-	=24-	=24-	=24-	=24-	=24-	=24-	=24-	=24-	=24-
.	.	.	.	.	.	.	.	.	.	.
4c/	.	.	.	.	.	.	.	.	.	.
*	*	*custos:e	*	*	*	*	*	*	*	*
2B/	-go	2g/	-go	.	.	.	.	.	.	.
=25-	=25-	=25-	=25-	=25-	=25-	=25-	=25-	=25-	=25-	=25-
!	!	!LO:LB:g=original	!	!	!	!	!	!	!	!
2.A/	ſa-	2.e/	ſa-	.	.	.	.	.	.	.
4A/	-pi-	4e/	-piens	.	.	.	.	.	.	.
=26-	=26-	=26-	=26-	=26-	=26-	=26-	=26-	=26-	=26-	=26-
4G/	-ens	2.g/	.	00r	.	.	00r	.	00r	.
4G/	et	.	.	.	.	.	.	.	.	.
2c/	u-	.	.	.	.	.	.	.	.	.
.	.	4e/	et	.	.	.	.	.	.	.
=27-	=27-	=27-	=27-	=27-	=27-	=27-	=27-	=27-	=27-	=27-
4A/	-na	2a\	u-	.	.	.	.	.	.	.
4A/	et	.	.	.	.	.	.	.	.	.
2d\	u-	4fny/	-na	.	.	.	.	.	.	.
.	.	4f/	de	.	.	.	.	.	.	.
=28-	=28-	=28-	=28-	=28-	=28-	=28-	=28-	=28-	=28-	=28-
4B/	-na	4.g/	nu-	.	.	.	.	.	.	.
4B/	et	.	.	.	.	.	.	.	.	.
.	.	8g/	-me-	.	.	.	.	.	.	.
2e\	u-	2g/	-ro	.	.	.	.	.	.	.
=29-	=29-	=29-	=29-	=29-	=29-	=29-	=29-	=29-	=29-	=29-
4c\	-na	2e/	de	.	.	.	.	.	.	.
4c/	de	.	.	.	.	.	.	.	.	.
4.f\	nu-	4.a\	nu-	.	.	.	.	.	.	.
8f\	-me-	8a\	-me-	.	.	.	.	.	.	.
=30-	=30-	=30-	=30-	=30-	=30-	=30-	=30-	=30-	=30-	=30-
4f\	-ro	4a\	-ro	00r	.	.	00r	.	00r	.
4e\	pru-	4g\	pru-	.	.	.	.	.	.	.
1d\	-den-	4f#X/	.	.	.	.	.	.	.	.
.	.	2g/	-den-	.	.	.	.	.	.	.
=31-	=31-	=31-	=31-	=31-	=31-	=31-	=31-	=31-	=31-	=31-
.	.	.	.	.	.	.	.	.	.	.
.	.	4f#/	.	.	.	.	.	.	.	.
4G/	-tum	2g/	-tem	.	.	.	.	.	.	.
4g\	de	.	.	.	.	.	.	.	.	.
=32-	=32-	=32-	=32-	=32-	=32-	=32-	=32-	=32-	=32-	=32-
4.d\	nu-	2r	.	.	.	.	.	.	.	.
*custos:f	*	*	*	*	*	*	*	*	*	*
8e\	-me-	.	.	.	.	.	.	.	.	.
!LO:LB:g=original	!	!	!	!	!	!	!	!	!	!
4f\	-ro	2fny/	de	.	.	.	.	.	.	.
4f\	de	.	.	.	.	.	.	.	.	.
=33-	=33-	=33-	=33-	=33-	=33-	=33-	=33-	=33-	=33-	=33-
4.c/	nu-	4.a\	nu-	.	.	.	.	.	.	.
8d\	-me-	8a\	-me-	.	.	.	.	.	.	.
4e\	-ro	4e/	-ro	.	.	.	.	.	.	.
*	*	*custos:g	*	*	*	*	*	*	*	*
4e\	de	4e/	de	.	.	.	.	.	.	.
=34-	=34-	=34-	=34-	=34-	=34-	=34-	=34-	=34-	=34-	=34-
!	!	!LO:LB:g=original	!	!	!	!	!	!	!	!
4.B/	nu-	4.g/	nu-	0r	.	.	0r	.	0r	.
!	!	!LO:N:vis=4	!	!	!	!	!	!	!	!
8B/	-me-	8g/	-me-	.	.	.	.	.	.	.
4c/	-ro	4g/	-ro	.	.	.	.	.	.	.
4c/	pru-	4e/	pru-	.	.	.	.	.	.	.
=35-	=35-	=35-	=35-	=35-	=35-	=35-	=35-	=35-	=35-	=35-
1d\	-den-	4f#X/	-den-	.	.	.	.	.	.	.
.	.	2g/	.	.	.	.	.	.	.	.
.	.	4f#/	.	.	.	.	.	.	.	.
=36-	=36-	=36-	=36-	=36-	=36-	=36-	=36-	=36-	=36-	=36-
1G/	-tum	1g\	-tum	1r	.	.	1r	.	1r	.
=37	=37	=37||	=37||	=37||	=37||	=37||	=37	=37	=37	=37
0r	.	0r	.	1r	.	.	1r	.	4dd\	Gau-
.	.	.	.	.	.	.	.	.	4dd\	-de-
.	.	.	.	.	.	.	.	.	4ee\	-a-
.	.	.	.	.	.	.	.	.	4ee\	-mus
=38-	=38-	=38-	=38-	=38-	=38-	=38-	=38-	=38-	=38-	=38-
.	.	.	.	4g\	Gau-	.	4b\	Gau-	2dd\	Om-
.	.	.	.	4g\	-de-	.	4b\	-de-	.	.
.	.	.	.	4e\	-a-	.	4cc\	-a-	2cc\	-nes
.	.	.	.	4c\	-mus,	.	4cc\	-mus	.	.
=39-	=39-	=39-	=39-	=39-	=39-	=39-	=39-	=39-	=39-	=39-
4g\	Gau-	4b\	Gau-	2G/	o-	.	2dd\	om-	1r	.
4g\	-de-	4b\	-de-	.	.	.	.	.	.	.
4c/	-a-	4cc\	-a-	2c,</	-mnes,	.	2cc\	-nes	.	.
4c/	-mus	4cc\	-mus	.	.	.	.	.	.	.
=40-	=40-	=40-	=40-	=40-	=40-	=40-	=40-	=40-	=40-	=40-
*	*	*	*	*	*	*	*	*ij	*	*ij
2G/	om-	2b\	o-	4g\	gau-	.	4dd\	gau-	4dd\	gau-
.	.	.	.	4g\	-de-	.	4b\	-de-	4dd\	-de-
2c/	-nes	2g\	-mnes	4c/	-a-	.	4cc\	-a-	4ee\	-a-
.	.	.	.	4c/	-mus	.	4cc\	-mus	4ee\	-mus
=41-	=41-	=41-	=41-	=41-	=41-	=41-	=41-	=41-	=41-	=41-
4g\	Gau-	4b\	gau-	2G/	om-	.	2b\	om-	2dd\	om-
4g\	-de-	4b\	-de-	.	.	.	.	.	.	.
4c/	-a-	4cc\	-a-	2c/	-nes	.	2g\	-nes	2cc\	-nes
*	*	*	*	*	*	*	*	*Xij	*	*Xij
4c/	-mus	4cc\	-mus	.	.	.	.	.	.	.
=42-	=42-	=42-	=42-	=42-	=42-	=42-	=42-	=42-	=42-	=42-
2G/	om-	2b\	om-	2r	.	.	1r	.	1r	.
*custos:d	*	*	*	*	*	*	*	*	*	*
4c/	-nes	4g/	-nes	4r	.	.	.	.	.	.
*	*	*	*	*custos:a	*	*	*	*	*	*
!LO:LB:g=original	!	!	!	!	!	!	!	!	!	!
4d/	in	4fny/	in	4d\	o-	.	.	.	.	.
=43-	=43-	=43-	=43-	=43-	=43-	=43-	=43-	=43-	=43-	=43-
!	!	!	!	!LO:LB:g=original	!	!	!	!	!	!
4.A/	Do-	4.e/	Do-	4.a\	-mnes,	.	1a\	in	2r	.
8A/	-mi-	8e/	-mi-	8g,<\	.	.	.	.	.	.
*	*	*custos:d	*	*	*	*	*	*	*	*
4d\	-no	2f#X/,<	-no	4.f\	in	.	.	.	2a\	in
4d\	in	.	.	.	.	.	.	.	.	.
.	.	.	.	8e\	.	.	.	.	.	.
=44-	=44-	=44-	=44-	=44-	=44-	=44-	=44-	=44-	=44-	=44-
!	!	!LO:LB:g=original	!	!	!	!	!	!	!	!
4.B/	Do-	2r	.	4.d\	Do-	.	4.g/	Do-	4.dd\	Do-
*	*	*	*	*	*	*	*custos:g	*	*	*
8A/	-mi-	.	.	8d\	-mi-	.	8g/	-mi	8dd\	-mi-
!	!	!	!	!	!	!	!LO:TX:t=P:problem=brak dalszej części	!	!	!
4G/	-no	2d/	in	4d,<\	-no	.	2ryy	.	4b\	-no
4G/	in	.	.	4g\	in	.	.	.	4b\	in
=45-	=45-	=45-	=45-	=45-	=45-	=45-	=45-	=45-	=45-	=45-
2.d\	Do-	2.d/	Do-	2.d\	Do-	.	1ryy	.	2.dd\	Do-
4d\	-mi-	4d/	-mi-	4d\	-mi-	.	.	.	4dd\	-mi-
=46-	=46-	=46-	=46-	=46-	=46-	=46-	=46-	=46-	=46-	=46-
*	*	*	*	*	*	*	*	*	*custos:b	*
!LO:TX:t=P:problem=kreska pseudotaktowa	!	!LO:TX:t=P:problem=podwojna kreska pseudotaktowa	!	!	!	!	!	!	!	!
1G/	-no	1d/	-no	1g\;<	-no	.	1ryy	.	1dd\	-no
=47-	=47-	=47-	=47-	=47-	=47-	=47-	=47-	=47-	=47-	=47-
!LO:TX:b:t=Ista est	!	!LO:TX:b:t=Ista est	!	!	!	!	!LO:LB:g=original	!	!	!
00r	.	00r	.	0r	.	.	1ryy	.	1b\	I-
=48-	=48-	=48-	=48-	=48-	=48-	=48-	=48-	=48-	=48-	=48-
.	.	.	.	.	.	.	1ryy	.	4b\	-sta
.	.	.	.	.	.	.	.	.	4a\	.
.	.	.	.	.	.	.	.	.	4b\	.
!	!	!	!	!	!	!	!	!	!LO:TX:t=P:problem=♯above	!
.	.	.	.	.	.	.	.	.	4cc#X\	.
=49-	=49-	=49-	=49-	=49-	=49-	=49-	=49-	=49-	=49-	=49-
.	.	.	.	1G/	I-	.	1ryy	.	2dd\	-eſt-
.	.	.	.	.	.	.	.	.	2dd\	i-
=50-	=50-	=50-	=50-	=50-	=50-	=50-	=50-	=50-	=50-	=50-
.	.	.	.	1A/	-ſta-	.	1ryy	.	2.ccny\	-sta
.	.	.	.	.	.	.	.	.	8b\L	.
.	.	.	.	.	.	.	.	.	8a\J	.
=51-	=51-	=51-	=51-	=51-	=51-	=51-	=51-	=51-	=51-	=51-
00r	.	00r	.	1G/,<	eſt	.	1ryy	.	2b\	est
.	.	.	.	.	.	.	.	.	4.b\	spe-
.	.	.	.	.	.	.	.	.	8a\	-ci-
=52-	=52-	=52-	=52-	=52-	=52-	=52-	=52-	=52-	=52-	=52-
.	.	.	.	4.c/	Spe-	.	1ryy	.	4g/	-o-
.	.	.	.	.	.	.	.	.	4g/	-ſa-
.	.	.	.	8B/	-c[i]-	.	.	.	.	.
.	.	.	.	4A/	-o-	.	.	.	4.cc\	spe-
.	.	.	.	4A,</	-sa,	.	.	.	.	.
.	.	.	.	.	.	.	.	.	8b\	-ci-
=53-	=53-	=53-	=53-	=53-	=53-	=53-	=53-	=53-	=53-	=53-
.	.	.	.	4.d\	Spe-	.	1ryy	.	4a\	-o-
.	.	.	.	.	.	.	.	.	4a\	-ſa-
.	.	.	.	8c/	-ci-	.	.	.	.	.
.	.	.	.	4B/	-o-	.	.	.	4.dd\	spe-
.	.	.	.	4B,</	-sa,	.	.	.	.	.
.	.	.	.	.	.	.	.	.	8cc\	-ci-
=54-	=54-	=54-	=54-	=54-	=54-	=54-	=54-	=54-	=54-	=54-
.	.	.	.	4.e\	Spe-	.	1ryy	.	4b\	-o-
.	.	.	.	.	.	.	.	.	4b\	-sa
.	.	.	.	8d\	-ci-	.	.	.	.	.
.	.	.	.	4c\	-o-	.	.	.	2ryy	.
*	*	*	*	*custos:f	*	*	*	*	*	*
.	.	.	.	4c\	-sa	.	.	.	.	.
=55-	=55-	=55-	=55-	=55-	=55-	=55-	=55-	=55-	=55-	=55-
!	!	!	!	!LO:LB:g=original	!	!	!	!	!LO:TX:t=P:problem=brak dalszej części	!
0r	.	0r	.	4.f\	Spe-	.	1ryy	.	1ryy	.
.	.	.	.	8e\	-ci-	.	.	.	.	.
.	.	.	.	4d\	-o-	.	.	.	.	.
.	.	.	.	4d\	-sa,	.	.	.	.	.
=56-	=56-	=56-	=56-	=56-	=56-	=56-	=56-	=56-	=56-	=56-
.	.	.	.	4.A/	Spe-	.	1ryy	.	1ryy	.
.	.	.	.	8G/	-ci-	.	.	.	.	.
.	.	.	.	2A/	-o-	.	.	.	.	.
=57-	=57-	=57-	=57-	=57-	=57-	=57-	=57-	=57-	=57-	=57-
!LO:TX:t=P:problem=kreska pseudotaktowa	!	!LO:TX:t=P:problem=podwojna kreska pseudotaktowa	!	!	!	!	!	!	!	!
!	!	!LO:N:vis=0	!	!	!	!	!	!	!	!
1r	.	1r	.	1c\	-sa;	.	1ryy	.	1ryy	.
=58-	=58-	=58-	=58-	=58-	=58-	=58-	=58-	=58-	=58-	=58-
*M3/2	*	*M3/2	*	*M3/2	*	*	*M3/2	*	*M3/2	*
*met(3)	*	*met(3)	*	*met(3)	*	*	*met(3)	*	*met(3)	*
!LO:TX:b:t=inter filias	!	!LO:TX:b:t=inter filias	!	!	!	!	!	!	!	!
00.r	.	00.r	.	1d\	in-	.	1.ryy	.	1.ryy	.
.	.	.	.	2B/	-ter	.	.	.	.	.
=59-	=59-	=59-	=59-	=59-	=59-	=59-	=59-	=59-	=59-	=59-
.	.	.	.	2.c/	fi-	.	1.ryy	.	1.ryy	.
.	.	.	.	4c/	-li-	.	.	.	.	.
.	.	.	.	2c/	-as	.	.	.	.	.
=60-	=60-	=60-	=60-	=60-	=60-	=60-	=60-	=60-	=60-	=60-
.	.	.	.	2B/	Ie-	.	1.ryy	.	1.ryy	.
.	.	.	.	2A/	-ru-	.	.	.	.	.
.	.	.	.	2A/	-ſa-	.	.	.	.	.
=61-	=61-	=61-	=61-	=61-	=61-	=61-	=61-	=61-	=61-	=61-
.	.	.	.	1.G/	-lem,	.	1.ryy	.	1.ryy	.
=62-	=62-	=62-	=62-	=62-	=62-	=62-	=62-	=62-	=62-	=62-
00.r	.	00.r	.	1g\	In-	.	1.ryy	.	1.ryy	.
.	.	.	.	2d\	-ter	.	.	.	.	.
=63-	=63-	=63-	=63-	=63-	=63-	=63-	=63-	=63-	=63-	=63-
.	.	.	.	2.f\	fi-	.	1.ryy	.	1.ryy	.
.	.	.	.	4f\	-li-	.	.	.	.	.
*	*	*	*	*custos:b	*	*	*	*	*	*
.	.	.	.	2c/	-as	.	.	.	.	.
=64-	=64-	=64-	=64-	=64-	=64-	=64-	=64-	=64-	=64-	=64-
!	!	!	!	!LO:LB:g=original	!	!	!	!	!	!
.	.	.	.	2B/	Ie-	.	1.ryy	.	1.ryy	.
.	.	.	.	2c/	-ru-	.	.	.	.	.
.	.	.	.	2d/	-ſa-	.	.	.	.	.
=65-	=65-	=65-	=65-	=65-	=65-	=65-	=65-	=65-	=65-	=65-
.	.	.	.	1.G/	-lem,	.	1.ryy	.	1.ryy	.
=66-	=66-	=66-	=66-	=66-	=66-	=66-	=66-	=66-	=66-	=66-
00.r	.	00.r	.	1g\	In-	.	1.ryy	.	1.ryy	.
.	.	.	.	2d\	-ter	.	.	.	.	.
=67-	=67-	=67-	=67-	=67-	=67-	=67-	=67-	=67-	=67-	=67-
.	.	.	.	2.f\	fi-	.	1.ryy	.	1.ryy	.
.	.	.	.	4f\	-li-	.	.	.	.	.
.	.	.	.	2c/	-as	.	.	.	.	.
=68-	=68-	=68-	=68-	=68-	=68-	=68-	=68-	=68-	=68-	=68-
.	.	.	.	2B/	Ie-	.	1.ryy	.	1.ryy	.
.	.	.	.	2d\	-ru-	.	.	.	.	.
.	.	.	.	2d\	-ſa-	.	.	.	.	.
=69-	=69-	=69-	=69-	=69-	=69-	=69-	=69-	=69-	=69-	=69-
.	.	.	.	1G/,<	-lem	.	1.ryy	.	1.ryy	.
.	.	.	.	2B/	Ie-	.	.	.	.	.
=70-	=70-	=70-	=70-	=70-	=70-	=70-	=70-	=70-	=70-	=70-
!	!	!LO:TX:t=P:problem=podwojna kreska pseudotaktowa	!	!	!	!	!	!	!	!
0.r;<	.	0.r	.	1d\	-ru-	.	1.ryy	.	1.ryy	.
.	.	.	.	2d\	-ſa-	.	.	.	.	.
=71-	=71-	=71-	=71-	=71-	=71-	=71-	=71-	=71-	=71-	=71-
!	!	!	!	!LO:N:vis=1	!	!	!	!	!	!
.	.	.	.	1.G/;	-lem;	.	1.ryy	.	1.ryy	.
.	.	.	.	.	.	.	.	.	.	.
=72	=72	=72	=72	=72	=72	=72	=72	=72	=72	=72
*M2/2	*	*M2/2	*	*M2/2	*	*	*M2/2	*	*M2/2	*
*met(C|)	*	*met(C|)	*	*met(C|)	*	*	*met(C|)	*	*met(C|)	*
!LO:LB:g=original	!	!	!	!LO:TX:t=P:problem=brak zmiany metrum	!	!	!	!	!	!
0r	.	0r	.	1r	.	.	1ryy	.	1ryy	.
=73-	=73-	=73-	=73-	=73-	=73-	=73-	=73-	=73-	=73-	=73-
.	.	.	.	4g\	gau-	.	1ryy	.	1ryy	.
.	.	.	.	4g\	-de-	.	.	.	.	.
.	.	.	.	4c/	-a-	.	.	.	.	.
.	.	.	.	4c/	-mus	.	.	.	.	.
=74-	=74-	=74-	=74-	=74-	=74-	=74-	=74-	=74-	=74-	=74-
*	*	*	*	*custos:c	*	*	*	*	*	*
4g\	Gau-	4b\	Gau-	2G/	o-	mnes	1ryy	.	1ryy	.
4g\	-de-	4b\	-de-	.	.	.	.	.	.	.
!	!	!	!	!LO:PB:g=original	!	!	!	!	!	!
4e\	-a-	4cc\	-a-	2c,</	-mnes:	.	.	.	.	.
4c\	-mus	4cc\	-mus	.	.	.	.	.	.	.
!!linebreak:original
=75-	=75-	=75-	=75-	=75-	=75-	=75-	=75-	=75-	=75-	=75-
*	*	*	*	*	*ij	*	*	*	*	*
2G/	om-	2b\	om-	4g\	gau-	.	1ryy	.	1ryy	.
.	.	.	.	4g\	-de-	.	.	.	.	.
2c/	-nes	2g,<\	-nes	4c/	-a-	.	.	.	.	.
.	.	.	.	4c/	-mus	.	.	.	.	.
=76-	=76-	=76-	=76-	=76-	=76-	=76-	=76-	=76-	=76-	=76-
4g\	Gau-	4b\	Gau-	2G/	o-	.	1ryy	.	1ryy	.
4g\	-de-	4b\	-de-	.	.	.	.	.	.	.
4c\	-a-	4cc\	-a-	2c/	-mnes	.	.	.	.	.
*	*	*	*	*	*Xij	*	*	*	*	*
*	*	*custos:b	*	*	*	*	*	*	*	*
4c\	-[mus]	4cc\	-mus	.	.	.	.	.	.	.
=77-	=77-	=77-	=77-	=77-	=77-	=77-	=77-	=77-	=77-	=77-
!	!	!LO:LB:g=original	!	!	!	!	!	!	!	!
2G/	om-	2b\	om-	2r	.	.	1ryy	.	1ryy	.
4c/	-nes	4g/	-nes	4r	.	.	.	.	.	.
4d/	in	4f/	in	4d\	o-	.	.	.	.	.
=78-	=78-	=78-	=78-	=78-	=78-	=78-	=78-	=78-	=78-	=78-
4.A/	Do-	4.e/	Do-	4.a\	.	.	1ryy	.	1ryy	.
8A/	-mi-	8e/	-mi-	8g\	-mnes	.	.	.	.	.
4d\	-no	2f#X/	-no	4.f\	in	.	.	.	.	.
4d\	in	.	.	.	.	.	.	.	.	.
.	.	.	.	8e\	.	.	.	.	.	.
=79-	=79-	=79-	=79-	=79-	=79-	=79-	=79-	=79-	=79-	=79-
4.B/	Do-	2r	.	4.d\	Do-	.	1ryy	.	1ryy	.
8A/	-mi-	.	.	8d\	-mi-	.	.	.	.	.
4G/	-no	2d/	in	4d\	-[n]o:	.	.	.	.	.
4G/	in	.	.	4g\	in	.	.	.	.	.
=80-	=80-	=80-	=80-	=80-	=80-	=80-	=80-	=80-	=80-	=80-
2.d\	Do-	2.d/	Do-	2.d\	Do-	.	1ryy	.	1ryy	.
4d\	-mi-	4d/	-mi-	4d\	-mi-	.	.	.	.	.
=81-	=81-	=81-	=81-	=81-	=81-	=81-	=81-	=81-	=81-	=81-
*custos:g	*	*	*	*	*	*	*	*	*	*
!	!	!LO:TX:t=P:problem=kreska pseudotaktowa	!	!LO:TX:t=P:problem=podwojna kreska pseudotaktowa	!	!	!	!	!	!
1G/	-no	1d/	-no	1g\;<	-no;	.	1ryy	.	1ryy	.
=82-	=82-	=82	=82	=82-	=82-	=82-	=82-	=82-	=82-	=82-
!LO:PB:g=original	!	!	!	!	!	!	!	!	!	!
1.G/	San-	1.g\	San-	1g\	San-	.	2ryy	.	2ryy	.
.	.	.	.	.	.	.	2ryy	.	2ryy	.
=83-	=83-	=83-	=83-	=83-	=83-	=83-	=83-	=83-	=83-	=83-
.	.	.	.	2d\	-cta	.	1ryy	.	1ryy	.
2G/	-cta	2g/	-cta	4g\	Ma-	.	.	.	.	.
.	.	.	.	4f\	.	.	.	.	.	.
=84-	=84-	=84-	=84-	=84-	=84-	=84-	=84-	=84-	=84-	=84-
1c\	ma-	4g/	ma-	4e\	.	.	1ryy	.	1ryy	.
.	.	4f/	.	4d\	.	.	.	.	.	.
*	*	*	*	*custos:e	*	*	*	*	*	*
.	.	4e/	.	2c/	-ter	.	.	.	.	.
.	.	4f/	-ter	.	.	.	.	.	.	.
=85-	=85-	=85-	=85-	=85-	=85-	=85-	=85-	=85-	=85-	=85-
!	!	!	!	!LO:LB:g=original	!	!	!	!	!	!
2G/	-ter	2g/	.	1r	.	.	1ryy	.	1ryy	.
!	!	!	!LO:MO:mod=scho-	!	!	!	!	!	!	!
2c/	scho-	2e/	sho-	.	.	.	.	.	.	.
=86-	=86-	=86-	=86-	=86-	=86-	=86-	=86-	=86-	=86-	=86-
!	!	!	!	!	!LO:MO:mod=Scho-	!	!	!	!	!
2.F/	-la-	2.a\	-la-	2e\	Sho-	.	1ryy	.	1ryy	.
.	.	.	.	2.A/	-la-	.	.	.	.	.
4F/	-sti-	4a/	-ſti-	.	.	.	.	.	.	.
=87-	=87-	=87-	=87-	=87-	=87-	=87-	=87-	=87-	=87-	=87-
*	*	*custos:g	*	*	*	*	*	*	*	*
1G/	-ca	1g\	-ca	.	.	.	1ryy	.	1ryy	.
.	.	.	.	4A/	-ſti-	.	.	.	.	.
.	.	.	.	1d\	-ca	.	.	.	.	.
=88-	=88-	=88-	=88-	=88-	=88-	=88-	=88-	=88-	=88-	=88-
!	!	!LO:PB:g=original	!	!	!	!	!	!	!	!
2r	.	2r	.	.	.	.	1ryy	.	1ryy	.
2.G/	pro-	1g\	Pro-	2r	.	.	.	.	.	.
=89-	=89-	=89-	=89-	=89-	=89-	=89-	=89-	=89-	=89-	=89-
.	.	.	.	1G/	pro-	.	1ryy	.	1ryy	.
4F/	.	.	.	.	.	.	.	.	.	.
2E/	-lem	2g/	-lem	.	.	.	.	.	.	.
=90-	=90-	=90-	=90-	=90-	=90-	=90-	=90-	=90-	=90-	=90-
4D/	tu-	4f/	tu-	2G/	-lem	.	1ryy	.	1ryy	.
4E/	.	4g/	.	.	.	.	.	.	.	.
4F/	.	2a\	.	2d\	tu-	.	.	.	.	.
4G/	.	.	.	.	.	.	.	.	.	.
=91-	=91-	=91-	=91-	=91-	=91-	=91-	=91-	=91-	=91-	=91-
4A/	-am	2e/	-am	2A/	-am:	.	1ryy	.	1ryy	.
4B/	.	.	.	.	.	.	.	.	.	.
2c/	San-	2e/	-ſan-	2r	.	.	.	.	.	.
=92-	=92-	=92-	=92-	=92-	=92-	=92-	=92-	=92-	=92-	=92-
2.G/	-cti-	2.g/	-cti-	1r	.	.	1ryy	.	1ryy	.
4G/	-fi-	4g/	-fi-	.	.	.	.	.	.	.
=93-	=93-	=93-	=93-	=93-	=93-	=93-	=93-	=93-	=93-	=93-
2G/	-ca	2g/	-ca	2r	.	.	1ryy	.	1ryy	.
2E/	San-	2g/	-ſan-	2c/	San-	.	.	.	.	.
=94-	=94-	=94-	=94-	=94-	=94-	=94-	=94-	=94-	=94-	=94-
2.G/	-cti-	2.g/	-cti-	2.G/	-cti-	.	1ryy	.	1ryy	.
4G/	-(fi)-	4g/	-fi-	4G/	-fi-	.	.	.	.	.
=95-	=95-	=95-	=95-	=95-	=95-	=95-	=95-	=95-	=95-	=95-
!	!	!LO:TX:t=P:problem=kreska pseudotaktowa	!	!	!	!	!	!	!	!
1c\	-ca	1g\	-ca	1c\	-ca	.	1ryy	.	1ryy	.
=96-	=96-	=96-	=96-	=96-	=96-	=96-	=96-	=96-	=96-	=96-
*M3/2	*	*M3/2	*	*M3/2	*	*	*M3/2	*	*M3/2	*
*met(3)	*	*met(3)	*	*met(3)	*	*	*met(3)	*	*met(3)	*
1.r	.	1.r	.	1.r	.	.	1.ryy	.	1.ryy	.
=97-	=97-	=97-	=97-	=97-	=97-	=97-	=97-	=97-	=97-	=97-
!LO:LB:g=original	!	!	!	!	!	!	!	!	!	!
1c\	tu-	2.e/	tu-	1c\	tu-	.	1.ryy	.	1.ryy	.
.	.	4f/	.	.	.	.	.	.	.	.
2G/	-a	2g/	-a	2g\	-a	.	.	.	.	.
=98-	=98-	=98-	=98-	=98-	=98-	=98-	=98-	=98-	=98-	=98-
1c\	laus	1g\	laus	1c\	laus;	.	1.ryy	.	1.ryy	.
2r	.	2r	.	2r	.	.	.	.	.	.
=99-	=99-	=99-	=99-	=99-	=99-	=99-	=99-	=99-	=99-	=99-
1c\	tu-	2.g\	tu-	1c\	tu-	.	1.ryy	.	1.ryy	.
*	*	*custos:b	*	*	*	*	*	*	*	*
.	.	4a\	.	.	.	.	.	.	.	.
!	!	!LO:LB:g=original	!	!	!	!	!	!	!	!
2g\	-a	2b\	-a	2G/	-a	.	.	.	.	.
=100-	=100-	=100-	=100-	=100-	=100-	=100-	=100-	=100-	=100-	=100-
1c\	laus	1g\	laus	1c\	laus;	.	1.ryy	.	1.ryy	.
2r	.	2r	.	2r	.	.	.	.	.	.
=101-	=101-	=101-	=101-	=101-	=101-	=101-	=101-	=101-	=101-	=101-
1c\	tu-	1g\	tu-	1e\	tu-	.	1.ryy	.	1.ryy	.
2F/	-a	2cc\	-a	2a\	-a	.	.	.	.	.
=102-	=102-	=102-	=102-	=102-	=102-	=102-	=102-	=102-	=102-	=102-
2.G/	glo-	2.b\	glo-	2.g\	glo-	.	1.ryy	.	1.ryy	.
4G/	-ri-	4b\	-ri-	4g\	-ri-	.	.	.	.	.
*	*	*	*	*custos:c	*	*	*	*	*	*
2c/	-a	2cc\	-a	2c/	-a	.	.	.	.	.
=103-	=103-	=103-	=103-	=103-	=103-	=103-	=103-	=103-	=103-	=103-
!	!	!	!	!LO:LB:g=original	!	!	!	!	!	!
0.r	.	0.r	.	2.c/	cre-	.	1.ryy	.	1.ryy	.
.	.	.	.	4B/	.	.	.	.	.	.
.	.	.	.	2A/	-ſcat	.	.	.	.	.
=104-	=104-	=104-	=104-	=104-	=104-	=104-	=104-	=104-	=104-	=104-
.	.	.	.	2.c/	cre-	.	1.ryy	.	1.ryy	.
.	.	.	.	4B/	.	.	.	.	.	.
.	.	.	.	2A/	-scat,	.	.	.	.	.
=105-	=105-	=105-	=105-	=105-	=105-	=105-	=105-	=105-	=105-	=105-
1.r	.	1.r	.	2c\	in	.	1.ryy	.	1.ryy	.
.	.	.	.	2d\	mi-	.	.	.	.	.
.	.	.	.	2e\	-le	.	.	.	.	.
=106-	=106-	=106-	=106-	=106-	=106-	=106-	=106-	=106-	=106-	=106-
1A/	cre-	1cc\	cre-	2.A/	mi-	.	1.ryy	.	1.ryy	.
.	.	.	.	4A/	-li-	.	.	.	.	.
2A/	-ſcat	2a\	-ſcat	2A/	-a;	.	.	.	.	.
=107-	=107-	=107-	=107-	=107-	=107-	=107-	=107-	=107-	=107-	=107-
1A/	cre-	1cc\	cre-	0.r	.	.	1.ryy	.	1.ryy	.
2A/	-ſcat	2a\	-ſcat	.	.	.	.	.	.	.
=108-	=108-	=108-	=108-	=108-	=108-	=108-	=108-	=108-	=108-	=108-
2c\	in	2cc\	in	.	.	.	1.ryy	.	1.ryy	.
2d\	mil-	2b\	mi-	.	.	.	.	.	.	.
!	!	!LO:TX:t=P:problem=♯above	!	!	!	!	!	!	!	!
2e\	-le	2g#X\	-lle	.	.	.	.	.	.	.
=109-	=109-	=109-	=109-	=109-	=109-	=109-	=109-	=109-	=109-	=109-
2.A/	mil-	2.a\	mi-	1.r	.	.	1.ryy	.	1.ryy	.
4A/	-li-	4a\	-lli-	.	.	.	.	.	.	.
2A/	-a	2a\	-a	.	.	.	.	.	.	.
=110-	=110-	=110-	=110-	=110-	=110-	=110-	=110-	=110-	=110-	=110-
0.r	.	0.r	.	1d\	cre-	.	1.ryy	.	1.ryy	.
.	.	.	.	2G/	-ſkat	.	.	.	.	.
=111-	=111-	=111-	=111-	=111-	=111-	=111-	=111-	=111-	=111-	=111-
.	.	.	.	1d\	cre-	.	1.ryy	.	1.ryy	.
.	.	.	.	2G/	-ſcat	.	.	.	.	.
=112-	=112-	=112-	=112-	=112-	=112-	=112-	=112-	=112-	=112-	=112-
1.r	.	1.r	.	2B/	in	.	1.ryy	.	1.ryy	.
.	.	.	.	2c/	mi-	.	.	.	.	.
.	.	.	.	2d/	-le	.	.	.	.	.
=113-	=113-	=113-	=113-	=113-	=113-	=113-	=113-	=113-	=113-	=113-
1G/	cre-	1b\	cre-	2.G/	mi-	.	1.ryy	.	1.ryy	.
.	.	.	.	4G/	-li-	.	.	.	.	.
*custos:g	*	*custos	*	*	*	*	*	*	*	*
2G/	-ſcat	2gny/	-ſcat	2G/	-a	.	.	.	.	.
=114-	=114-	=114-	=114-	=114-	=114-	=114-	=114-	=114-	=114-	=114-
!LO:LB:g=original	!	!LO:LB:g=original	!	!	!	!	!	!	!	!
1G/	cre-	2.b\	cre-	0.r	.	.	1.ryy	.	1.ryy	.
.	.	4a\	.	.	.	.	.	.	.	.
2G/	-ſcat	2g/	-ſcat	.	.	.	.	.	.	.
=115-	=115-	=115-	=115-	=115-	=115-	=115-	=115-	=115-	=115-	=115-
2B/	in	2g/	in	.	.	.	1.ryy	.	1.ryy	.
2c/	mil-	2e/	mi-	.	.	.	.	.	.	.
2d/	-le	2f#X/	-lle	.	.	.	.	.	.	.
=116-	=116-	=116-	=116-	=116-	=116-	=116-	=116-	=116-	=116-	=116-
2.G/	mil-	2.g/	mi-	1g\	cre-	.	1.ryy	.	1.ryy	.
4G/	-li-	4g/	lli-	.	.	.	.	.	.	.
2G/	-a	2g/	-a	2g,<\	-scat;	.	.	.	.	.
=117-	=117-	=117-	=117-	=117-	=117-	=117-	=117-	=117-	=117-	=117-
1g\	cre-	1b\	cre-	1G/	cre-	.	1.ryy	.	1.ryy	.
2g\	-ſcat	2b\	-ſcat	2G,</	-scat,	.	.	.	.	.
=118-	=118-	=118-	=118-	=118-	=118-	=118-	=118-	=118-	=118-	=118-
1G/	cre-	1g\	cre-	2g\	in	.	1.ryy	.	1.ryy	.
*	*	*	*	*custos:c	*	*	*	*	*	*
.	.	.	.	2g\	mi-	.	.	.	.	.
!	!	!	!	!LO:LB:g=original	!	!	!	!	!	!
2c/	-ſcat	2g/	-ſcat	2c/	-le	.	.	.	.	.
=119-	=119-	=119-	=119-	=119-	=119-	=119-	=119-	=119-	=119-	=119-
2g\	in	2b\	in	2.G/	mi-	.	1.ryy	.	1.ryy	.
2g\	mil-	2b\	mi-	.	.	.	.	.	.	.
.	.	.	.	4G/	-li-	.	.	.	.	.
2c/	-le	2cc\	-le	2c,</	-a,	.	.	.	.	.
=120-	=120-	=120-	=120-	=120-	=120-	=120-	=120-	=120-	=120-	=120-
2.G/	mil-	2.dd\	mi-	2g\	in	.	1.ryy	.	1.ryy	.
.	.	.	.	2g\	mi-	.	.	.	.	.
4G/	-li-	4b\	-lli-	.	.	.	.	.	.	.
2c/	-a	2cc\	-a	2c/	-le	.	.	.	.	.
=121-	=121-	=121-	=121-	=121-	=121-	=121-	=121-	=121-	=121-	=121-
2G/	in	2b\	in	2.g\	mi-	.	1.ryy	.	1.ryy	.
2G/	mil-	2b\	mi-	.	.	.	.	.	.	.
.	.	.	.	4g\	-li-	.	.	.	.	.
*	*	*custos:a	*	*	*	*	*	*	*	*
2c/	-le	2cc\	-lle	2g,<\	-a	.	.	.	.	.
=122-	=122-	=122-	=122-	=122-	=122-	=122-	=122-	=122-	=122-	=122-
!	!	!LO:LB:g=original	!	!	!	!	!	!	!	!
1d\	mil-	1a\	mi-	1d\	mi-	.	1.ryy	.	1.ryy	.
2d\	-li-	2a\	-lli-	2d\	-li-	.	.	.	.	.
=123-	=123-	=123-	=123-	=123-	=123-	=123-	=123-	=123-	=123-	=123-
1G/	-a	1g\	-a	1g\	-a	.	1.ryy	.	1.ryy	.
2r	.	2r	.	2r	.	.	.	.	.	.
=124-	=124-	=124-	=124-	=124-	=124-	=124-	=124-	=124-	=124-	=124-
*M2/2	*	*M2/2	*	*M2/2	*	*	*M2/2	*	*M2/2	*
*met(C|)	*	*met(C|)	*	*met(C|)	*	*	*met(C|)	*	*met(C|)	*
1c\	in	1g\	in	1g\	in	.	1ryy	.	1ryy	.
=125-	=125-	=125-	=125-	=125-	=125-	=125-	=125-	=125-	=125-	=125-
2c/	mil-	2g/	mi-	2e\	mi-	.	1ryy	.	1ryy	.
*custos:c	*	*	*	*	*	*	*	*	*	*
2B/	-le	2b\	-llia	2g\	-le	.	.	.	.	.
=126-	=126-	=126-	=126-	=126-	=126-	=126-	=126-	=126-	=126-	=126-
!LO:TX:t=P:problem=zakończenie na skanie 0067	!	!	!	!	!	!	!	!	!	!
2.c\	mil-	2.g/	mi-	2.c/	mi-	.	1ryy	.	1ryy	.
4c\	-li-	4g/	-lli-	4c/	-li-	.	.	.	.	.
=127-	=127-	=127-	=127-	=127-	=127-	=127-	=127-	=127-	=127-	=127-
0G/	-a	0g;\	-a	0g\;<	-a	.	0ryy	.	0ryy	.
==	==	==	==	==	==	==	==	==	==	==
*-	*-	*-	*-	*-	*-	*-	*-	*-	*-	*-
!!!system-decoration: [(s1,s2,s3)][(s4,s5)]
!!!RDF**kern: > = above
!!!RDF**kern: < = below
!!!ENC: Andrzej Gręziak
!!!END: 2021-10-08
!!!EED: Andrzej Borzym
!!!EEV: 2021-10-15
!!!YEC: Copyright 2022 Narodowy Instytut Fryderyka Chopina (https://polishscores.org)
!!!YEM: License CC-BY-4.0 (https://creativecommons.org/licenses/by/4.0)
